material/.icons/material/currency-eur-off.svg

<svg xmlns="http://www.w3.org/2000/svg" viewBox="0 0 24 24"><path d="M22.11 21.46L2.39 1.73 1.11 3 6 7.89c-.19.36-.36.73-.5 1.11H3l-1 2h3.05L5 12l.05 1H3l-1 2h3.5c1.25 3.5 4.58 6 8.5 6 1.5 0 2.89-.35 4.12-1l2.72 2.73 1.27-1.27M7 12l.07-1h2.05l2 2H7.07L7 12m7 7c-2.79 0-5.2-1.63-6.33-4h5.45l3.48 3.5c-.81.31-1.68.5-2.6.5m3-5.19l-.79-.81h1.14l-.35.81M18.19 11h-3.98l-2-2h6.83l-.85 2M9.7 6.5L8.27 5.07A8.954 8.954 0 0114 3c2.5 0 4.8 1.05 6.43 2.72l-.86 2.04A7.015 7.015 0 0014 5c-1.62 0-3.11.58-4.3 1.5z"/></svg>

<?xml version="1.0" encoding="UTF-8"?><!DOCTYPE svg PUBLIC "-//W3C//DTD SVG 1.1//EN" "http://www.w3.org/Graphics/SVG/1.1/DTD/svg11.dtd"><svg xmlns="http://www.w3.org/2000/svg" xmlns:xlink="http://www.w3.org/1999/xlink" version="1.1" id="mdi-currency-eur-off" width="24" height="24" viewBox="0 0 24 24"><path d="M22.11 21.46L2.39 1.73L1.11 3L6 7.89C5.81 8.25 5.64 8.62 5.5 9H3L2 11H5.05L5 12L5.05 13H3L2 15H5.5C6.75 18.5 10.08 21 14 21C15.5 21 16.89 20.65 18.12 20L20.84 22.73L22.11 21.46M7 12L7.07 11H9.12L11.12 13H7.07L7 12M14 19C11.21 19 8.8 17.37 7.67 15H13.12L16.6 18.5C15.79 18.81 14.92 19 14 19M17 13.81L16.21 13H17.35L17 13.81M18.19 11H14.21L12.21 9H19.04L18.19 11M9.7 6.5L8.27 5.07C9.83 3.78 11.82 3 14 3C16.5 3 18.8 4.05 20.43 5.72L19.57 7.76C18.29 6.09 16.27 5 14 5C12.38 5 10.89 5.58 9.7 6.5Z" /></svg>
